X:1
T:Miserere mei Deus
T:John Wall Callcott (1766-1821)
T:From the composer's "First collection of catches, glees, canons, etc", British Library Catalogue no. E.207 f (2)
T:Miserere mei Deus
T:Canon
C:John Wall Callcott (1766-1821)
Z:From the composer's "First collection of
Z:catches, glees, canons, etc", British Library
Z:Catalogue no. E.207 f (2)
%%score [ 1 2 3 4 ]
L:1/8
Q:1/4=60
M:4/4
K:C
V:1 treble nm="Treble" snm="S."
V:2 treble nm="Counter tenor" snm="A."
V:3 treble-8 transpose=-12 nm="Tenor" snm="T."
V:4 bass nm="Bass" snm="B."
V:1
"^Adagio" z8 | z2 B4 c2 | (d2 A4) B2 | c4 B4 |: A4 d4 | z2 B4 B2 | c2 A2 B2 c2 | B6 B2 | A4 f4 | %9
w: |Mi- se-|re- * re|me- i|De- us,|mi- se-|re- re me- i|De- us,|mi- se-|
 e2 c2 B2 A2 | B4 A4 | e3 d c2 B2 | c2 A2 z4 | A3 B c2 B2 | z8 | z4 A2 B2 | c2 c2 z4 | z2 B4 ^c2 | %18
w: re- re me- i|De- us,|mi- se- re- re|me- i,|mi- se- re- re,||mi- se-|re- re|mi- se-|
 (d2 A4) B2 | c4 B4 :| A4 d4 | z2 B4 B2 | c2 A2 B2 c2 | B6 !fermata!B2 |] %24
w: re- * re|me- i|De- us,|mi- se-|re- re me- i|De- us.|
V:2
 A6 A2 | ^G4 =G4 | ^F4 =F4 | E8 |: A8 | z8 | E2 E2 A4- | A4 ^G4 | A6 A2 | A8 | ^G4 z4 | ^G4 E4 | %12
w: Mi- se-|re- re|me- i|De-|us,||mi- se- re-|* re|me- i|De-|us,|mi- se-|
 E2 A2 ^G2 A2 | z8 | A6 A2 | E2 G2 z4 | A6 A2 | ^G4 =G4 | ^F4 =F4 | E8 :| A8 | z8 | E2 E2 A4- | %23
w: re- re me- i,||mi- se-|re- re,|mi- se-|re- re|me- i|De-|us,||mi- se- re-|
 A4 !fermata!^G4 |] %24
w: * re.|
V:3
 z8 | z8 | z8 | z8 |: z2 d4 c2 | (B2 e4) d2 | c4 d4 | e4 B4 | z2 d4 d2 | c2 e2 d2 c2 | d6 d2 | %11
w: ||||Mi- se-|re- * re|me- i|De- us,|mi- se-|re- re me- i|De- us,|
 e4 ^G4 | A2 c2 d2 e2 | d4 e4 | A3 B c2 d2 | c2 e2 z4 | e3 d c2 d2 | z8 | z4 e2 d2 | c2 c2 z4 :| %20
w: mi- se-|re- re me- i|De- us,|mi- se- re- re|me- i,|mi- se- re- re,||mi- se-|re- re.|
 z2 d4 c2 | (B2 e4) d2 | c4 d4 | e4 !fermata!B4 |] %24
w: Mi- se-|re- * re|me- i|De- us.|
V:4
 z8 | z8 | z8 | E,6 E,2 |: =F,4 ^F,4 | =G,4 ^G,4 | A,8 | E,8 | z8 | A,2 A,2 E,4- | E,4 F,4 | %11
w: |||Mi- se-|re- re|me- i|De-|us,||mi- se- re-|* re|
 E,6 E,2 | E,8 | F,4 z4 | F,4 A,4 | A,2 E,2 F,2 E,2 | z8 | E,6 E,2 | A,2 ^F,2 z4 | E,6 E,2 :| %20
w: me- i|De-|us,|mi- se-|re- re me- i,||mi- se-|re- re,|mi- se-|
 =F,4 ^F,4 | =G,4 ^G,4 | A,8 | !fermata!E,8 |] %24
w: re- re|me- i|De-|us.|

